X: 129017
T: OLD ROSIN THE BEAU
%R: jig
B: James Kerr "Merry Melodies" v.1 p.29 s.0 #17
Z: 2016 John Chambers <jc:trillian.mit.edu>
M: 6/8
L: 1/8
K: A
|: uA |\
A>GA c>BA | e3 f3 | e>cA A>Bc | F3- F2 E |\
A>GA c>BA | e3 f3 | e>cA BAG | A3 A2 ||
vc/d/ |\
ece efg | va2vf ua2uf | e>cA A>Bc | F3- F2 uE |\
A>GA c>BA | e3 f3 | e>cA B>AG | A3 A2 |]

%%sep 1 1 500
%%sep 1 1 500

